!!!!SEGMENT: pl-gd--ee-1638--005-006_marenzio-luca--il-primo-libro-de-madrigali-spirituali-a-cinque-voci-padre-del-cielo.krn
!!!cenid: 15xx:959
!!!COM: Marenzio, Luca
!!!COM-rismID: pe30003955
!!!CDT: ~1553-1599/08/22
!!!CNT: Italian
!!!GTL: Il Primo libro de madrigali spirituali a cinque voci
!!!OTL: Padre del Cielo
!!!OMV: 006
!!!PDT: 1588
!!!AGN:
!!!SMS-siglum: PL-GD
!!!SMS-shelfmark: Ee 1638
!!!SMS-shelfwork: 005-006 G
!!!SMS-variant:
!!!SMS-altvar:
!!!NIFC-rismSourceID: 1001202747
!!!NIFC-rismChildID: 990039269
!!!NIFC-islandoraID: pl-gd:57883
!!!URL-pdf-islandora: https://repozytorium.nifc.pl/islandora/object/pl-gd%3A57883/datastream/PDF/view
!!!URL-scan: https://polish.musicsources.pl/pl/lokalizacje/galeria/klocki-introligatorskie/655 @EN{Scan on Polish Music Sources Website} @PL{Skany w portalu Dziedzictwo Muzyki Polskiej w otwartym dostępie}
!!!ONB-nifc: UWAGA: zbiór na stronach: Canto: s. 666-677, Alto: s. 514-525, Tenore: s. 362-373, Bassus: s. 210-221, Quinto: s. 58-69. Uwaga: utwory podzielone wg tytułów w spisach treści dostępnych na końcu każdej księgi głosowej.
!!!AIN: 1 alto 1 bass 1 soprn 2 tenor
!!!key:
**kern	**text	**kern	**text	**kern	**text	**kern	**text	**kern	**text
*part4	*part4	*part3	*part3	*part5	*part5	*part2	*part2	*part1	*part1
*staff4	*staff4	*staff3	*staff3	*staff5	*staff5	*staff2	*staff2	*staff1	*staff1
*I"BASSO	*	*I"TENORE	*	*I"QVINTO	*	*I"ALTO	*	*I"CANTO	*
*mI"Basso	*	*mI"Tenore II	*	*mI"Tenore I	*	*mI"Alto	*	*mI"Soprano	*
*I'B	*	*I'T	*	*I'Q	*	*I'A	*	*I'S	*
*	*	*mI'T II	*	*mI'T I	*	*	*	*	*
*Ibass	*	*Itenor	*	*Itenor	*	*Ialto	*	*Isoprn	*
*ICvox	*	*ICvox	*	*ICvox	*	*ICvox	*	*ICvox	*
*clefF4	*	*clefC4	*	*clefC4	*	*clefC3	*	*clefC1	*
*	*	*mclefGv2	*	*mclefGv2	*	*mclefG2	*	*mclefG2	*
*k[b-]	*	*k[b-]	*	*k[b-]	*	*k[b-]	*	*k[b-]	*
*F:	*	*F:	*	*F:	*	*F:	*	*F:	*
*M2/1	*	*M2/1	*	*M2/1	*	*M2/1	*	*M2/1	*
*met(c|)	*	*met(c|)	*	*met(c|)	*	*met(c|)	*	*met(c|)	*
*mmet(c|)	*	*mmet(c|)	*	*mmet(c|)	*	*mmet(c|)	*	*mmet(c|)	*
=1-	=1-	=1-	=1-	=1-	=1-	=1-	=1-	=1-	=1-
!LO:TX:t=P:problem:zdwojony znak przykluczowy	!	!	!	!	!	!	!	!	!
!LO:TX:a:t=Prima Parte	!	!LO:TX:a:t=Prima Parte	!	!LO:TX:a:t=Prima Parte	!	!LO:TX:a:t=Prima Parte	!	!LO:TX:a:t=Prima Parte	!
!	!	!	!	!	!LO:MO:mod=Pa-	!	!	!	!
00r	.	0r	.	0F/	PA-	1r	.	0r	.
!	!	!	!	!	!	!	!LO:MO:mod=Pa-	!	!
.	.	.	.	.	.	0c\	PA-	.	.
=2-	=2-	=2-	=2-	=2-	=2-	=2-	=2-	=2-	=2-
!	!	!	!LO:MO:mod=Pa-	!	!	!	!	!	!
.	.	0F/	PA-	1A\	-dre	.	.	1r	.
!	!	!	!	!	!	!	!	!	!LO:MO:mod=Pa-
.	.	.	.	1c\	del	1.A/	-dre	0cc\	PA-
=3-	=3-	=3-	=3-	=3-	=3-	=3-	=3-	=3-	=3-
!	!LO:MO:mod=Pa-	!	!	!	!	!	!	!	!
0F\	PA-	1A\	-dre	1.f\	cie-	.	.	.	.
.	.	.	.	.	.	2F/	del	.	.
.	.	1c\	del	.	.	1.f\	cie-	1.a\	-dre
.	.	.	.	2c\	-lo	.	.	.	.
=4-	=4-	=4-	=4-	=4-	=4-	=4-	=4-	=4-	=4-
1D\	-dre	1f\	cie-	1r	.	.	.	.	.
.	.	.	.	.	.	2a\	-lo	2f/	del
1BB-/	del	1f\	-lo	0d\	hor	1r	.	1.b-\	cie-
=5-	=5-	=5-	=5-	=5-	=5-	=5-	=5-	=5-	=5-
1.B-\	cie-	1r	.	.	.	1.f\	hor	.	.
.	.	.	.	.	.	.	.	1dd\	-lo_hor
.	.	1d\	hor	1B-\	ch`at-	.	.	.	.
!	!	!	!	!	!	!	!	!	!LO:MO:mod=ch'at-
1G\	-lo	.	.	.	.	2g\	ch`at-	1b-\	ch`al-
=6-	=6-	=6-	=6-	=6-	=6-	=6-	=6-	=6-	=6-
!	!	!	!LO:MO:mod=ch'at-	!	!	!	!	!	!
.	.	1B-\	ch`al-	0G/	-ra	2d\	-ra	.	.
!	!	!	!	!	!	!	!	!	!LO:MO:mod=-ra
1E-X\	hor	.	.	.	.	4e-X\	nu-	2g/	-tra
.	.	.	.	.	.	8d\	.	.	.
.	.	.	.	.	.	8c\	.	.	.
!	!	!	!LO:MO:mod=-ra	!	!	!	!	!	!
.	.	1e-X\	-tra	.	.	4B-/	.	2.g/	nu-
!	!	!	!	!	!	!LO:SIC:v:t=custos g	!	!	!
.	.	.	.	.	.	4G/	.	.	.
!	!	!	!	!	!	!LO:LB:g=original	!	!	!
2C/	ch`at-	.	.	.	.	2.g\	.	.	.
.	.	.	.	.	.	.	.	4a\	.
=7-	=7-	=7-	=7-	=7-	=7-	=7-	=7-	=7-	=7-
0GG/	-ra	4d\	nu-	4G/	nu-	.	.	4b-\	.
.	.	4c\	.	4A/	.	8f\	.	4cc\	.
.	.	.	.	.	.	8eny\	.	.	.
.	.	4B-\	.	4B-\	.	2.d\	.	4dd\	.
.	.	4A/	.	4c\	.	.	.	4cc\	.
.	.	1.G/	.	1.d\	.	.	.	4b-\	.
!	!	!	!	!	!	!	!	!LO:SIC:v:t=custos g	!
.	.	.	.	.	.	4c/	.	4a\	.
!	!	!	!	!	!	!	!	!LO:LB:g=original	!
.	.	.	.	.	.	2B-/	.	2g/	.
=8-	=8-	=8-	=8-	=8-	=8-	=8-	=8-	=8-	=8-
1D\	nu-	.	.	.	.	1A/	-be il	1a\	be
!	!	!LO:SIC:v:t=custos G	!	!LO:SIC:v:t=custos c	!	!	!	!	!
.	.	2F#X/	-be_il	2A/	-be_il	.	.	.	.
!	!	!LO:LB:g=original	!	!LO:LB:g=original	!	!	!	!	!
2C/	-be il	2G/	cal-	2c\	cal-	2e\	cal-	1r	.
2AA/	calle	2A/	-le	2c\	-le	2f\	-le	.	.
=9-	=9-	=9-	=9-	=9-	=9-	=9-	=9-	=9-	=9-
1BB-/	Deſ-	1Fny/	Deſ-	1B-\	Deſ-	1d\	Deſ-	0r	.
2FF/	-tro	2F/	-tro	2A/	-tro	2c/	-tro	.	.
!LO:SIC:v:t=custos AA	!	!	!	!	!	!	!	!	!
2GG/	na-	2D/	m`aſ-	2G/	m`aſ-	2B-/	m`aſ-	.	.
!LO:LB:g=original	!	!	!	!	!	!	!	!	!
=10-	=10-	=10-	=10-	=10-	=10-	=10-	=10-	=10-	=10-
1AA/	-ſcon-	1C#X/	-con-	1E/	-con-	1A/	-con-	1r	.
1AA/	-d`e	1C#/	-de	1E/	-d`e	1A/	-d`e	1a\	e
=11-	=11-	=11-	=11-	=11-	=11-	=11-	=11-	=11-	=11-
0D\	vie	2r	.	1F/	vie	2A/	vie	4a\	vie
.	.	.	.	.	.	.	.	4ff\	fal-
.	.	2A/	e	.	.	1f\	fal-	4dd\	-la-
.	.	.	.	.	.	.	.	4a\	-ci
.	.	2d\	vie	4r	.	.	.	2b-\	ſtam-
.	.	.	.	4f\	fal-	.	.	.	.
.	.	4r	.	4d\	-la-	2a\	-la-	2f/	-po
.	.	2f\	fal-	4A/	-ci	.	.	.	.
=12-	=12-	=12-	=12-	=12-	=12-	=12-	=12-	=12-	=12-
1r	.	.	.	2B-\	ſtam-	2d\	-ci	4r	.
.	.	2d\	-la-	.	.	.	.	4f/	fal-
.	.	.	.	2A/	-po	2e\	ſtam-	4a\	-la-
.	.	4c\	-ci	.	.	.	.	4e/	-ci
4r	.	0c\	ſtam-	2F/	e	4A/	-po	2f/	ſtam-
4F\	fal-	.	.	.	.	4a\	fal-	.	.
4A\	-la-	.	.	2c\	vie	4a\	-la-	2e/	-po
!	!	!	!	!	!	!LO:SIC:v:t=custos f	!	!	!
4Eny\	-ci	.	.	.	.	4g\	-ci	.	.
!	!	!	!	!	!	!LO:LB:g=original	!	!	!
=13-	=13-	=13-	=13-	=13-	=13-	=13-	=13-	=13-	=13-
2F\	ſtam-	.	.	4r	.	2f\	ſtam-	4r	.
*	*	*	*	*	*	*	*	*	*ij
.	.	.	.	4F/	fal-	.	.	4a\	fal-
2C/	-po	.	.	4G/	-la-	2e\	-po	4a\	-la-
!	!	!	!	!	!	!	!	!LO:SIC:v:t=custos f	!
.	.	.	.	4E/	-ci	.	.	4g\	-ci
!	!	!	!	!	!	!	!	!LO:LB:g=original	!
4r	.	4A/	-po	0F/	ſtam-	4r	.	0f/	ſtam-
4E\	fal-	4A/	fal-	.	.	4c/	fal-	.	.
4D/	-la-	4d\	-la-	.	.	4f\	-la-	.	.
4AA/	-ci	4c\	-ci	.	.	4e\	-ci	.	.
=14-	=14-	=14-	=14-	=14-	=14-	=14-	=14-	=14-	=14-
1BB-/	ſtam-	1B-\	ſtam-	.	.	1d\	ſtam-	.	.
2FF/	-po	1A\	-po	1F/	-po	2c/	-po	2f/	-po
*	*	*	*	*	*	*	*	*	*Xij
2F\	Con	.	.	.	.	4r	.	2a\	Con
.	.	.	.	.	.	4c/	Con	.	.
=15-	=15-	=15-	=15-	=15-	=15-	=15-	=15-	=15-	=15-
!	!	!	!	!LO:SIC:v:t=custos F	!	!	!	!LO:N:acc=#	!
2G\	va-	1r	.	1r	.	2g\	va-	2bn\	va-
2A\	-go	.	.	.	.	2e\	-go	2cc#X\	-go
!	!	!	!	!LO:LB:g=original	!	!	!	!	!
4D/	pie	4r	.	2r	.	2f\	pie	4.dd\	pie
!	!	!LO:SIC:v:t=custos f	!	!	!	!	!	!	!
4D/	per	4f\	Per	.	.	.	.	.	.
.	.	.	.	.	.	.	.	16ccny\	.
.	.	.	.	.	.	.	.	16b\	.
!	!	!LO:LB:g=original	!	!	!	!	!	!	!
4D/	queſ-	4f\	queſ-	2F/	con	4r	.	4.a\	.
*	*	*	*	*	*	*	*ij	*	*
4D/	-t`in-	4f\	-to_in	.	.	4d\	Con	.	.
.	.	.	.	.	.	.	.	8b\	.
=16-	=16-	=16-	=16-	=16-	=16-	=16-	=16-	=16-	=16-
4C/	-ſta-	4eny\	-ſta-	2G/	va-	2e\	va-	1cc\	.
!LO:SIC:v:t=custos AA	!	!	!	!	!	!	!	!	!
4BB-/	-bil	4d\	-bil	.	.	.	.	.	.
!LO:LB:g=original	!	!	!	!	!	!	!	!	!
2AA/	cam-	2c\	cam-	2A/	-go	2f#X\	-go	.	.
2GG/	-po	2B-\	-po	4D/	pie	4g\	pie	2r	.
*	*	*	*	*	*	*	*Xij	*	*
.	.	.	.	4d\	per	4g\	per	.	.
2D/	con	2r	.	4d\	queſ-	4a\	queſ-	2f/	Con
.	.	.	.	4d\	-to_in-	4fny\	-to_in-	.	.
=17-	=17-	=17-	=17-	=17-	=17-	=17-	=17-	=17-	=17-
2E-X\	va-	1r	.	4c\	-ſta-	4e-X\	-ſta-	2g/	va-
.	.	.	.	4B-\	-bil	4d\	-bil	.	.
!	!	!	!	!	!	!LO:SIC:v:t=custos f	!	!	!
2F\	-go	.	.	2A/	cam-	2c/	cam-	2a\	-go
!	!	!	!	!	!	!LO:LB:g=original	!	!	!
1BB-/	pie	2r	.	8B-\	-po	2f\	-po	4d/	pie
.	.	.	.	8c\	.	.	.	.	.
.	.	.	.	8d\	.	.	.	4dd\	per
.	.	.	.	8e\	.	.	.	.	.
!	!	!	!	!	!	!	!LO:MO:mod=Con	!	!
.	.	2B-\	Con	2f\	.	2d\	Co(n)	4dd\	queſ-
.	.	.	.	.	.	.	.	4dd\	-to_in-
=18-	=18-	=18-	=18-	=18-	=18-	=18-	=18-	=18-	=18-
1r	.	2c\	va-	1r	.	2eny\	va-	4cc\	-ſta-
!	!	!	!	!	!	!	!	!LO:SIC:v:t=custos a	!
.	.	.	.	.	.	.	.	4b-y\	-bil
!	!	!	!	!	!	!	!	!LO:LB:g=original	!
.	.	2d\	-go	.	.	2f#X\	-go	2a\	cam-
4r	.	4G/	pie	2r	.	4.g\	pie	2b-\	-po
4G\	per	4B-\	per	.	.	.	.	.	.
.	.	.	.	.	.	16fny\	.	.	.
.	.	.	.	.	.	16e-y\	.	.	.
*	*	*	*	*	*ij	*	*	*	*ij
4G\	queſ-	4B-\	queſ-	2B-\	con	2d\	.	2g/	Con
4G\	-to_in-	4B-\	-to_in-	.	.	.	.	.	.
=19-	=19-	=19-	=19-	=19-	=19-	=19-	=19-	=19-	=19-
4F\	-ſta-	4A/	-ſta-	2c\	va-	1r	.	2a\	va-
4Eny\	-bil	4G/	-bil	.	.	.	.	.	.
!	!	!	!	!	!	!	!	!LO:N:acc=#	!
2D/	cam-	2F/	cam-	2d\	-go	.	.	2bn\	-go
1C/	-po	4.E/	-po	4G/	pie	4r	.	4cc\	pie
.	.	.	.	4c\	per	4eny\	per	4g/	per
.	.	8F/	.	.	.	.	.	.	.
!	!	!LO:SIC:v:t=custos A	!	!	!	!	!	!	!
.	.	2G/	.	4c\	queſ-	4e\	queſ-	4g/	queſ-
!	!	!	!	!LO:SIC:v:t=custos B	!	!	!	!	!
.	.	.	.	4c\	-to_in-	4e\	-to_in-	4g/	-to_in-
!	!	!LO:LB:g=original	!	!LO:LB:g=original	!	!	!	!	!
=20-	=20-	=20-	=20-	=20-	=20-	=20-	=20-	=20-	=20-
0r	.	1r	.	4B-\	-ſta-	4d\	-ſta-	4g/	-ſta-
.	.	.	.	4A/	-bil	2f\	-bil	4a\	-bil
.	.	.	.	2G/	cam-	.	.	2b-y\	cam-
.	.	.	.	.	.	4e\	cam-	.	.
.	.	4r	.	2F/	-po	1f\	-po	0a\	-po
*	*	*	*	*	*Xij	*	*	*	*Xij
.	.	4A/	De	.	.	.	.	.	.
.	.	1d\	la	2D/	De	.	.	.	.
=21-	=21-	=21-	=21-	=21-	=21-	=21-	=21-	=21-	=21-
1AA/	De	.	.	1.A\	la	1e\	De	.	.
.	.	2c\	mon-	.	.	.	.	.	.
1.D\	la	2F/	-da-	.	.	2d\	la	1a\	De
!	!	!	!	!	!LO:MO:mod=mon-	!	!LO:MO:mod=mon-	!	!
.	.	2G/	-na_e	2G/	mo(n)-	2e\	mo(n)-	.	.
=22-	=22-	=22-	=22-	=22-	=22-	=22-	=22-	=22-	=22-
.	.	1A\	pa-	2F/	-da-	0f\	-da-	1.dd\	la
2C/	mon-	.	.	2E/	-na_e	.	.	.	.
!LO:SIC:v:t=custos AA	!	!	!	!	!	!	!	!	!
2BB-/	-da-	1B-\	-lu-	1D/	pa-	.	.	.	.
!LO:LB:g=original	!	!	!	!	!	!	!	!	!
2AA/	-na_e	.	.	.	.	.	.	2cc\	mon-
=23-	=23-	=23-	=23-	=23-	=23-	=23-	=23-	=23-	=23-
1.GG/	pa-	1.B-\	-do-	1d\	-lu-	2g\	-na_e	2b-\	-da-
!	!	!	!	!	!	!LO:SIC:v:t=custos e	!	!	!
.	.	.	.	.	.	2d\	pa-	2a\	-na_e
!	!	!	!	!	!	!LO:LB:g=original	!	!	!
.	.	.	.	2G/	-do-	2e\	-lu-	1g\	pa-
2AA/	-lu-	2A/	-ſa	2c\	-ſa	1f\	-do-	.	.
=24-	=24-	=24-	=24-	=24-	=24-	=24-	=24-	=24-	=24-
!LO:N:acc=#	!	!	!	!	!	!	!	!LO:SIC:v:t=custos a	!
2BBn/	-do-	1G/	val-	2d\	val-	.	.	1g\	-lu-
2C/	-ſa	.	.	2c\	.	2e\	-ſa	.	.
!	!	!	!	!	!	!	!	!LO:LB:g=original	!
0FF/	val-	2.F/	.	0.c\	-le	1f\	val-	2a\	-do-
.	.	.	.	.	.	.	.	2b-\	-ſa
.	.	4G/	.	.	.	.	.	.	.
=25-	=25-	=25-	=25-	=25-	=25-	=25-	=25-	=25-	=25-
.	.	0.A\	-le	.	.	0F/	-le	1cc\	val-
0FF/	-le	.	.	.	.	.	.	0c/	-le
=26-	=26-	=26-	=26-	=26-	=26-	=26-	=26-	=26-	=26-
.	.	.	.	2r	.	1r	.	.	.
.	.	.	.	1A\	Reg-	.	.	.	.
1r	.	1D/	Reg-	.	.	1f\	Reg-	2r	.
.	.	.	.	1d\	-ga	.	.	2.a\	Pre-
=27-	=27-	=27-	=27-	=27-	=27-	=27-	=27-	=27-	=27-
00r	.	1A\	-ga	.	.	1e\	-ga	.	.
.	.	.	.	.	.	.	.	8g/	.
.	.	.	.	.	.	.	.	8f/	.
.	.	.	.	1c\	tua	.	.	2e/	.
.	.	1F/	tua	.	.	2A/	tua	2f/	-ga
.	.	.	.	1A\	ſan-	1f\	ſan-	2c/	tua
=28-	=28-	=28-	=28-	=28-	=28-	=28-	=28-	=28-	=28-
.	.	2D/	ſan-	.	.	.	.	2d/	ſan-
.	.	2Cny/	-ta	2c\	-ta	2e\	-ta	2g/	-ta
!	!	!	!	!LO:SIC:v:t=custos B	!	!	!	!	!
!	!	!	!	!LO:N:acc=#	!	!	!	!	!
.	.	4G/	man	4Bn\	man	2d\	man	4.g/	man
!	!	!LO:SIC:v:t=custos A	!	!LO:LB:g=original	!	!	!	!	!
.	.	4G/	sì	4B\	sì	.	.	.	.
.	.	.	.	.	.	.	.	8f/	.
!	!	!LO:LB:g=original	!	!	!	!	!	!	!
.	.	4A/	ch`ei	4c\	ch`ei	2r	.	2e/	.
!	!	!	!LO:MO:mod=non	!	!LO:MO:mod=non	!	!	!	!
.	.	4A/	no(n)	4c\	no(n)	.	.	.	.
=29-	=29-	=29-	=29-	=29-	=29-	=29-	=29-	=29-	=29-
0r	.	2B-\	fal-	2d\	fal-	4r	.	2r	.
.	.	.	.	.	.	4d\	sì	.	.
.	.	2A/	-le	2c\	-le	4e\	ch`ei	4r	.
!	!	!	!	!	!	!	!LO:MO:mod=non	!	!
.	.	.	.	.	.	4e\	no(n)	4cc\	sì
.	.	4r	.	4r	.	2f\	fal-	4a\	ch`ei
!	!	!	!	!	!	!	!	!	!LO:MO:mod=non
.	.	4c\	Mio	4F/	Mio	.	.	4a\	no(n)
!	!	!	!	!	!	!	!	!LO:SIC:v:t=custos a	!
.	.	4.B-\	cor-	4.G/	cor-	2d\	-le	1b-\	fal-
.	.	8c\	-ſo_er-	8A/	-ſo_er-	.	.	.	.
=30-	=30-	=30-	=30-	=30-	=30-	=30-	=30-	=30-	=30-
4r	.	2d\	-ran-	2B-\	-ran-	2r	.	.	.
4G\	sì	.	.	.	.	.	.	.	.
!	!	!	!	!	!	!	!	!LO:LB:g=original	!
4A\	ch`ei	2c\	-te	2F/	-te	4r	.	4a\	-le
!	!LO:MO:mod=non	!	!	!	!	!	!	!	!
4A\	no(n)	.	.	.	.	4c/	Mio	4a\	Mio
2B-\	fal-	1r	.	2r	.	4.d\	cor-	4.f/	cor-
.	.	.	.	.	.	8e\	-ſo_er-	8g/	-ſo_er-
4A\	-le	.	.	4r	.	4f\	-ran-	2a\	-ran-
*	*	*	*	*	*ij	*	*	*	*
!	!	!	!	!	!	!LO:SIC:v:t=custos d	!	!	!
4AA/	Mio	.	.	4c\	Mio	4e\	-te	.	.
!	!	!	!	!	!	!LO:LB:g=original	!	!	!
=31-	=31-	=31-	=31-	=31-	=31-	=31-	=31-	=31-	=31-
4.BB-/	cor-	4r	.	4.d\	cor-	4r	.	1f/	-te
*	*	*	*ij	*	*	*	*ij	*	*
.	.	4B-\	Mio	.	.	4d\	Mio	.	.
8C/	-ſo_er-	.	.	8e\	-ſo_er-	.	.	.	.
2D/	-ran-	4.F/	cor-	1f\	-ran-	4.A/	cor-	.	.
.	.	8G/	-ſo_er-	.	.	8B-/	-ſo_er-	.	.
1C/	-te	2A/	-ran-	.	.	2c/	-ran-	1r	.
.	.	2G/	-te	2e\	-te	2c/	-te	.	.
*	*	*	*Xij	*	*Xij	*	*Xij	*	*
=32-	=32-	=32-	=32-	=32-	=32-	=32-	=32-	=32-	=32-
2r	.	1r	.	2r	.	2r	.	1cc\	e
!LO:SIC:v:t=custos D	!	!	!	!LO:SIC:v:s=1A	!	!	!	!	!
1F\	e	.	.	1G/	e	1c\	e	.	.
.	.	1F/	e	.	.	.	.	1.a\	di
!LO:LB:g=original	!	!	!	!	!	!	!	!	!
1D\	di	.	.	1d\	di	1f\	di	.	.
=33-	=33-	=33-	=33-	=33-	=33-	=33-	=33-	=33-	=33-
.	.	2D/	di	.	.	.	.	.	.
2BB-/	tua	1B-\	tua	2d\	tua	2f\	tua	2b-\	tua
1.E-X\	gra-	.	.	1.e-X\	gra-	1g\	gra-	1.b-\	gra-
.	.	1G/	gra-	.	.	.	.	.	.
=34-	=34-	=34-	=34-	=34-	=34-	=34-	=34-	=34-	=34-
.	.	.	.	.	.	1.g\	-tia'l	.	.
!	!	!	!	!LO:SIC:v:t=custos d	!	!	!	!	!
2C/	-tia`l	2G/	-tia`l	2e-y\	-tia`l	.	.	2cc\	-tia_il
!LO:N:acc=#	!	!	!	!LO:LB:g=original	!	!	!	!	!
1BBn/	lam-	1.G/	lam-	1d\	lam-	.	.	1dd\	lam-
.	.	.	.	.	.	2d\	lam-	.	.
=35-	=35-	=35-	=35-	=35-	=35-	=35-	=35-	=35-	=35-
1C/	-po	.	.	1c\	-po	1e\	-po	1g\	-po
!	!	!LO:SIC:v:t=custos E	!	!	!	!	!	!	!
.	.	2E/	-po	.	.	.	.	.	.
!	!	!LO:LB:g=original	!	!	!	!	!	!	!
1AA/	Dol-	1E/	Dol-	1c#X\	Dol-	1e\	Dol-	1a\	Dol-
=36-	=36-	=36-	=36-	=36-	=36-	=36-	=36-	=36-	=36-
1AA/	-ce	1A\	-ce	1c#y\	-ce	1e\	-ce	0a\	-ce
2D/	ſou-	4r	.	4r	.	4r	.	.	.
.	.	4F/	ſou-	4d\	ſou-	4f\	ſou-	.	.
4D/	-ra	4F/	-ra	4A/	-ra	4d\	-ra	.	.
4D/	me	4F/	me	4A/	me	4f\	me	.	.
=37-	=37-	=37-	=37-	=37-	=37-	=37-	=37-	=37-	=37-
!	!	!	!	!	!LO:MO:mod=splen-	!	!LO:MO:mod=splen-	!	!
2C/	ſplen-	2G/	ſplen-	2cny\	ſple(n)-	2e\	ſple(n)-	0r	.
4BB-y/	-da_e	4B-\	-da_e	4d\	-d`e	4f\	-d`e	.	.
2F\	del	2c\	del	2f\	del	2a\	del	.	.
4A\	mio	4c\	mio	4c\	mio	4e\	mio	.	.
2G\	ſcam-	2B-\	ſcam-	2d\	ſcam-	2g\	ſcam-	.	.
=38-	=38-	=38-	=38-	=38-	=38-	=38-	=38-	=38-	=38-
!	!	!	!	!	!	!LO:SIC:v:t=custos d	!	!	!
2F\	-po	1A\	-po	0f\	-po	1c\	-po	4a\	Quel
.	.	.	.	.	.	.	.	4b-\	ſen-
!	!	!	!	!	!	!	!	!LO:SIC:v:t=custos dd	!
4FF/	Quel	.	.	.	.	.	.	1cc\	-tier
4GG/	ſen-	.	.	.	.	.	.	.	.
!LO:SIC:v:t=custos BB	!	!	!	!	!	!LO:LB:g=original	!	!	!
2AA/	-tier	2r	.	.	.	2r	.	.	.
!LO:LB:g=original	!	!	!	!	!	!	!	!LO:LB:g=original	!
2BB-/	moſ-	4F/	Quel	.	.	4d\	Quel	2dd\	moſ-
.	.	4G/	ſen-	.	.	4e\	ſen-	.	.
=39-	=39-	=39-	=39-	=39-	=39-	=39-	=39-	=39-	=39-
2FF/	-tri	2A/	-tier	2r	.	2f\	-tier	2cc\	-tri
*	*	*	*	*	*	*	*ij	*	*
2r	.	2B-\	moſ-	4d\	Quel	4f\	Quel	2r	.
.	.	.	.	4eny\	ſen-	4g\	ſen-	.	.
4F\	Quel	2c\	-tri	2f\	-tier	2a\	-tier	2r	.
*	*	*	*	*	*	*	*Xij	*	*
4G\	ſen-	.	.	.	.	.	.	.	.
2A\	-tier	2r	.	2c\	moſ-	2e\	moſ-	4a\	Quel
.	.	.	.	.	.	.	.	4b-\	ſen-
=40-	=40-	=40-	=40-	=40-	=40-	=40-	=40-	=40-	=40-
2F\	moſ-	4c\	Quel	2A/	-tri	2a\	-tri	0cc\	-tier
!	!	!LO:SIC:v:t=custos e	!	!	!	!	!	!	!
.	.	4d\	ſen-	.	.	.	.	.	.
!	!	!LO:LB:g=original	!	!	!	!	!	!	!
2C/	-tri	2e\	-tier	2r	.	4g\	Quel	.	.
.	.	.	.	.	.	4g\	ſen-	.	.
4FF/	Quel	1f\	moſ-	4A/	Quel	1a\	-tier	.	.
4GG/	ſen-	.	.	4B-\	ſen-	.	.	.	.
!	!	!	!	!LO:SIC:v:t=custos d	!	!	!	!	!
2AA/	-tier	.	.	2c\	-tier	.	.	.	.
!	!	!	!	!LO:LB:g=original	!	!	!	!	!
=41-	=41-	=41-	=41-	=41-	=41-	=41-	=41-	=41-	=41-
2BB-/	moſ-	1F/	-tri_à	2d\	moſ-	1.f\	moſ-	2b-\	moſ-
2FF/	-tri_à	.	.	2c\	-tri_à	.	.	2a\	-tri_à
1C/	cui	1G/	cui	1c\	cui	.	.	2.g/	cui
.	.	.	.	.	.	2e\	-tri_à	.	.
.	.	.	.	.	.	.	.	4a\	.
=42-	=42-	=42-	=42-	=42-	=42-	=42-	=42-	=42-	=42-
1GG/	vol-	1G/	vol-	1B-\	vol-	2d\	cui	1b-\	.
.	.	.	.	.	.	1g\	vol-	.	.
1.D\	-s`io	1A\	-s`io	1.d\	-s`io	.	.	1a\	vol-
.	.	.	.	.	.	1f\	-s`io	.	.
=43-	=43-	=43-	=43-	=43-	=43-	=43-	=43-	=43-	=43-
!	!	!LO:N:acc=#	!	!	!	!	!	!	!
.	.	2Bn\	le	.	.	.	.	2d/	-s`io
2C/	le	2.c\	ſpal-	2G/	le	2e\	le	2g/	le
1GG/	ſpal-	.	.	1G/	ſpal-	1d\	ſpal-	1g\	ſpal-
!	!	!LO:N:acc=#	!	!	!	!	!	!	!
.	.	8Bn\	.	.	.	.	.	.	.
.	.	8A\	.	.	.	.	.	.	.
!	!	!LO:N:acc=#	!	!	!	!	!	!	!
.	.	2Bn\	.	.	.	.	.	.	.
=44-	=44-	=44-	=44-	=44-	=44-	=44-	=44-	=44-	=44-
0C/l	-le.	0c\l	-le.	0G/l	-le.	0e\l	-le.	0g\l	-le.
==	==	==	==	==	==	==	==	==	==
*-	*-	*-	*-	*-	*-	*-	*-	*-	*-
!!!system-decoration: [(*)]
!!!RDF**kern: l = terminal long
!!!ENC: Filip Voros
!!!END: 2022-06-28
!!!ENC: Andrzej Borzym
!!!END: 2022-07-15
!!!ENC-modern: Leszek Kubiak
!!!END-modern: 2022-08-16
!!!filter-modern: sic -sq | autostem -r | tie -s | humtr -p | shed -e "s/TX(.*):t=P:/tx$1:t=P:/LG"  | shed -e "s/-//B" | modori -m
!!!YEC: Copyright 2022 Narodowy Instytut Fryderyka Chopina (https://polishscores.org)
!!!YEM: License CC-BY-4.0 (https://creativecommons.org/licenses/by/4.0)
